!!!OTL: Der verkleidete Markgrafensohn Es freit ein reicher Kaufmannssohn,
!!!ARE: Europa, Mitteleuropa, Deutschland / France, Lothringen, Weiler
!!!YOR: 1, S. 61
!!    1932 gedruckt (17. Jh. ?)
!!!SCT: Q0006E
!!!YEM: Copyright 1995, estate of Helmut Schaffrath.
**kern
*ICvox
*Ivox
*M3/4
*k[f#]
*G:
{8d
=1
8d
8d
4g
8f#
8e
=2
8f#
8g
4a
8r}
{8a
=3
8b
8a
4g
4f#
=4
4e
4d
8r}
{8a
=5
12a
12a
12b
8a
8a
4dd
=6
12cc
12b
12a
4g
8a}
{8b
=7
16cc
16b
8a
4b
8a
8g
=8
4f#
4g
8r}
==
!!!AGN: Ballade, Braut - Werbung
!! Version mit zwei Sechzehnteln kodiert (gleichberechtigte Fassungen)
!!!ONB: ESAC (Essen Associative Code) Database: BALLADE
!!!AMT: simple triple
!!!AIN: vox
!!!EED: Helmut Schaffrath
!!!EEV: 1.0
*-
